X:1
T:Title
%%score [ ( 1 2 ) ( 3 4 ) ]
L:1/8
Q:1/4=100
M:4/4
K:C
V:1 treble nm="S A"
V:2 treble 
V:3 bass nm="T B"
V:4 bass 
V:1
"^Westminster (C.M.)""^My God, how wonderful thou art""^Frederick W. Faber\n(1814-63)""^James Turle\n(1802-82)" E2 | %1
 G2 G2 C2 c2 | B2 A2 G2 G2 | e2 B2 c2 d2 | G6 || G2 | B2 A2 ^G2 A2 | c2 B2 A2 A2 | G2 C2 D2 F2 | %9
 E6 |] %10
V:2
 C2 | E2 D2 C2 E2 | E2 CD E2 F2 | E2 GF E2 FE | D6 || D2 | D2 D2 D2 C2 | E2 ED C2 F2 | %8
 E2 C2 C2 B,2 | C6 |] %10
V:3
"^1. My God, how wonderful thou art,\nThy majesty how bright,\nHow beautiful thy mercy-seat,\nIn depths of burning light!\n\n2. How dread are thine eternal years,\nO everlasting Lord,\nBy prostrate spirits day and night\nIncessantly adored!\n\n3. How wonderful, how beautiful,\nThe sight of thee must be,\nThine endless wisdom, boundless power,\n And aweful purity!\n\n4. O how I fear thee, living God,\nWith deepest, tenderest fears,\nAnd worship thee with trembling hope,\nAnd penitential tears." G,2 | %1
 G,2 D,2 E,2 C2 | E2 A,B, C2 B,2 | C2 ED C2 A,2 | B,6 || %5
"^5. Yet I may love thee too, O Lord,\nAlmighty as thou art,\nFor thou hast stooped to ask of me\nThe love of my poor heart.\n\n6. No earthly father loves like thee,\nNo mother, e'er so mild,\nBears and forbears as thou hast done\nWith me, thy sinful child.\n\n7. Father of Jesus, love's reward,\nWhat rapture it will be,\nProstrate before thy throne to lie,\nAnd gaze and gaze on thee!" B,2 | %6
 G,2 A,2 B,2 A,2 | A,2 ^G,2 A,2 D2 | G,2 G,2 A,2 G,2 | G,6 |] %10
V:4
 C,2 | C,2 B,,2 A,,2 A,2 | G,2 F,2 E,2 D,2 | C,2 G,2 A,2 F,2 | G,6 || G,2 | G,2 F,2 E,2 F,2 | %7
 E,2 E,2 A,,2 B,,2 | C,2 E,2 F,2 G,2 | C,6 |] %10

